packages/astro-components-stencil/src/icons/keyboard-hide.svg

<svg xmlns="http://www.w3.org/2000/svg" viewBox="0 0 24 24"><g xmlns="http://www.w3.org/2000/svg" id="keyboard-hide" fill-rule="nonzero">
            <path d="M20 2H4c-1.1 0-1.99.9-1.99 2L2 14c0 1.1.9 2 2 2h16c1.1 0 2-.9 2-2V4c0-1.1-.9-2-2-2zm-9 3h2v2h-2V5zm0 3h2v2h-2V8zM8 5h2v2H8V5zm0 3h2v2H8V8zm-1 2H5V8h2v2zm0-3H5V5h2v2zm8 7H9c-.55 0-1-.45-1-1s.45-1 1-1h6c.55 0 1 .45 1 1s-.45 1-1 1zm1-4h-2V8h2v2zm0-3h-2V5h2v2zm3 3h-2V8h2v2zm0-3h-2V5h2v2zm-6.65 14.65l2.79-2.79a.5.5 0 00-.35-.85H9.21c-.45 0-.67.54-.35.85l2.79 2.79c.19.19.51.19.7 0z"/>
        </g></svg>

<svg width="24" height="24" viewBox="0 0 24 24" fill="none" xmlns="http://www.w3.org/2000/svg">
<path fill-rule="evenodd" clip-rule="evenodd" d="M20 2H4C2.9 2 2.01 2.9 2.01 4L2 14C2 15.1 2.9 16 4 16H20C21.1 16 22 15.1 22 14V4C22 2.9 21.1 2 20 2ZM11 5H13V7H11V5ZM13 8H11V10H13V8ZM8 5H10V7H8V5ZM10 8H8V10H10V8ZM7 10H5V8H7V10ZM5 7H7V5H5V7ZM15 14H9C8.45 14 8 13.55 8 13C8 12.45 8.45 12 9 12H15C15.55 12 16 12.45 16 13C16 13.55 15.55 14 15 14ZM14 10H16V8H14V10ZM16 7H14V5H16V7ZM17 10H19V8H17V10ZM19 7H17V5H19V7ZM15.14 18.86L12.35 21.65C12.16 21.84 11.84 21.84 11.65 21.65L8.86 18.86C8.54 18.55 8.76 18.01 9.21 18.01H14.79C15.23 18.01 15.45 18.55 15.14 18.86Z" fill="black"/>
</svg>
